64x64/apps/librecad.svg

<svg height="64" width="64" xmlns="http://www.w3.org/2000/svg"><circle cx="32" cy="33" opacity=".2" r="28"/><circle cx="32" cy="32" fill="#8bc34a" r="28"/><path d="m32 4a28 28 0 0 0 -28 28 28 28 0 0 0 .018.492 28 28 0 0 1 27.982-27.492 28 28 0 0 1 27.975 27.492 28 28 0 0 0 .025-.492 28 28 0 0 0 -28-28z" fill="#f4f4f7" opacity=".2"/><circle cx="32" cy="33" opacity=".2" r="20"/><circle cx="32" cy="32" fill="#f4f4f7" r="20"/><path d="m5.324 30a28 21 0 0 0 -.324 2.994 28.571 30 0 0 0 0 .006 28.571 30 0 0 0 .094 1.629 28 21 0 0 0 .222 1.371h54.512a28 28 0 0 0 .172-3 28 28 0 0 0 -.193-3z" opacity=".2"/><path d="m5.324 29a28 21 0 0 0 -.324 2.994 28.571 30 0 0 0 0 .006 28.571 30 0 0 0 .094 1.629 28 21 0 0 0 .222 1.371h54.512a28 28 0 0 0 .172-3 28 28 0 0 0 -.193-3z" fill="#4f4f4f"/><rect height="16" opacity=".2" rx="2.667" width="16" x="2" y="25"/><rect fill="#4f4f4f" height="16" rx="2.667" width="16" x="2" y="24"/></svg>

<svg xmlns="http://www.w3.org/2000/svg" width="64" height="64"><circle style="opacity:.2" cx="32" cy="33" r="28"/><circle style="fill:#8bc34a" cx="32" cy="32" r="28"/><path style="opacity:.2;fill:#f4f4f7" d="M32 4A28 28 0 0 0 4 32a28 28 0 0 0 .018.492A28 28 0 0 1 32 5a28 28 0 0 1 27.975 27.492A28 28 0 0 0 60 32 28 28 0 0 0 32 4z"/><circle style="opacity:.2" cx="32" cy="33" r="20"/><circle style="fill:#f4f4f7" cx="32" cy="32" r="20"/><path style="opacity:.2" d="M5.324 30A28 21 0 0 0 5 32.994 28.571 30 0 0 0 5 33a28.571 30 0 0 0 .094 1.629A28 21 0 0 0 5.316 36h54.512A28 28 0 0 0 60 33a28 28 0 0 0-.193-3z"/><path style="fill:#4f4f4f" d="M5.324 29A28 21 0 0 0 5 31.994 28.571 30 0 0 0 5 32a28.571 30 0 0 0 .094 1.629A28 21 0 0 0 5.316 35h54.512A28 28 0 0 0 60 32a28 28 0 0 0-.193-3H5.324z"/><rect style="opacity:.2" width="16" height="16" x="2" y="25" rx="2.667" ry="2.667"/><rect style="fill:#4f4f4f" width="16" height="16" x="2" y="24" rx="2.667" ry="2.667"/></svg>
